static/assets/img/icons/theme/home/flower-1.svg

<svg height="24" viewBox="0 0 24 24" width="24" xmlns="http://www.w3.org/2000/svg"><g fill="none" fill-rule="evenodd"><path d="m0 0h24v24h-24z" opacity="0"/><g fill="#000"><path d="m9 1c-4.07638889 6.82926829-4.07638889 11.8292683 0 15 3.9097222-3.1707317 3.9097222-8.17073171 0-15z" opacity=".3" transform="matrix(-.8660254 .5 .5 .8660254 12.427602 -3.329966)"/><path d="m15 1c-4.0763889 6.82926829-4.0763889 11.8292683 0 15 3.9097222-3.1707317 3.9097222-8.17073171 0-15z" opacity=".3" transform="matrix(.8660254 .5 -.5 .8660254 6.251246 -6.329966)"/><path d="m12 1c-4.07638889 6.82926829-4.07638889 11.8292683 0 15 3.9097222-3.1707317 3.9097222-8.17073171 0-15z" opacity=".3"/><path d="m6.34403065 13h11.31193865c.5522848 0 1 .4477153 1 1 0 .0973246-.0142077.1941279-.0421737.2873479l-2.1862043 7.2873479c-.2537904.8459679-1.0324362 1.4253042-1.9156526 1.4253042h-5.0238774c-.88321644 0-1.66186219-.5793363-1.91565257-1.4253042l-2.18620436-7.2873479c-.15869786-.5289929.14148555-1.0864763.6704784-1.2451742.09322002-.027966.19002332-.0421737.28734788-.0421737z"/></g></g></svg>

<svg width="24px" height="24px" viewBox="0 0 24 24" version="1.1" xmlns="http://www.w3.org/2000/svg" xmlns:xlink="http://www.w3.org/1999/xlink">
    <title>Icon For Flower#1</title>
    <g stroke="none" stroke-width="1" fill="none" fill-rule="evenodd">
        <polygon opacity="0" points="0 0 24 0 24 24 0 24"></polygon>
        <path d="M9,1 C4.92361111,7.82926829 4.92361111,12.8292683 9,16 C12.9097222,12.8292683 12.9097222,7.82926829 9,1 Z" fill="#000000" opacity="0.3" transform="translate(8.937500, 8.500000) scale(-1, 1) rotate(-330.000000) translate(-8.937500, -8.500000) "></path>
        <path d="M15,1 C10.9236111,7.82926829 10.9236111,12.8292683 15,16 C18.9097222,12.8292683 18.9097222,7.82926829 15,1 Z" fill="#000000" opacity="0.3" transform="translate(14.937500, 8.500000) rotate(-330.000000) translate(-14.937500, -8.500000) "></path>
        <path d="M12,1 C7.92361111,7.82926829 7.92361111,12.8292683 12,16 C15.9097222,12.8292683 15.9097222,7.82926829 12,1 Z" fill="#000000" opacity="0.3"></path>
        <path d="M6.34403065,13 L17.6559693,13 C18.2082541,13 18.6559693,13.4477153 18.6559693,14 C18.6559693,14.0973246 18.6417616,14.1941279 18.6137956,14.2873479 L16.4275913,21.5746958 C16.1738009,22.4206637 15.3951551,23 14.5119387,23 L9.4880613,23 C8.60484486,23 7.82619911,22.4206637 7.57240873,21.5746958 L5.38620437,14.2873479 C5.22750651,13.758355 5.52768992,13.2008716 6.05668277,13.0421737 C6.14990279,13.0142077 6.24670609,13 6.34403065,13 Z" fill="#000000"></path>
    </g>
</svg>
